assets/logos/debian.svg

<svg class="typst-doc" viewBox="0 0 91.86645669291339 125.6584566929134" width="91.86645669291339pt" height="125.6584566929134pt" xmlns="http://www.w3.org/2000/svg" xmlns:xlink="http://www.w3.org/1999/xlink" xmlns:h5="http://www.w3.org/1999/xhtml">
    <path class="typst-shape" fill="#ffffff" fill-rule="nonzero" d="M 0 0v 125.658455 h 91.866455 v -125.658455 Z "/>
    <g>
        <g class="typst-group" transform="matrix(1 0 0 1 14.173228346456693 14.173228346456693)">
            <g>
                <path class="typst-shape" fill="#000000" fill-rule="nonzero" d="M 0 0m 0 5 c 0 -2.7614238 2.2385762 -5 5 -5 h 53.52 c 2.761425 0 5 2.2385762 5 5 v 87.312 c 0 2.7614288 -2.238575 5 -5 5 h -53.52 c -2.7614238 0 -5 -2.2385712 -5 -5 Z "/>
                <g class="typst-group" transform="matrix(1 0 0 1 8 19.616)">
                    <g/>
                </g>
                <g class="typst-group" transform="matrix(1 0 0 1 8 19.616)">
                    <g/>
                </g>
                <g class="typst-group" transform="matrix(1 0 0 1 8 8)">
                    <g>
                        <g class="typst-text" transform="matrix(1 0 0 -1 0 8.976000000000003)">
                            <use xlink:href="#gB3CB5C71C376FEAC35A5CE3E9D70B056" x="10.56" y="0" fill="#ff0000" fill-rule="nonzero"/>
                            <use xlink:href="#gB3CB5C71C376FEAC35A5CE3E9D70B056" x="15.84" y="0" fill="#ff0000" fill-rule="nonzero"/>
                            <use xlink:href="#gB3CB5C71C376FEAC35A5CE3E9D70B056" x="21.12" y="0" fill="#ff0000" fill-rule="nonzero"/>
                            <use xlink:href="#gB3CB5C71C376FEAC35A5CE3E9D70B056" x="26.400000000000002" y="0" fill="#ff0000" fill-rule="nonzero"/>
                            <use xlink:href="#gB3CB5C71C376FEAC35A5CE3E9D70B056" x="31.680000000000003" y="0" fill="#ff0000" fill-rule="nonzero"/>
                        </g>
                    </g>
                </g>
                <g class="typst-group" transform="matrix(1 0 0 1 55.52000000000001 8)">
                    <g/>
                </g>
                <g class="typst-group" transform="matrix(1 0 0 1 8 31.232000000000003)">
                    <g/>
                </g>
                <g class="typst-group" transform="matrix(1 0 0 1 8 31.232000000000003)">
                    <g/>
                </g>
                <g class="typst-group" transform="matrix(1 0 0 1 8 31.232000000000003)">
                    <g/>
                </g>
                <g class="typst-group" transform="matrix(1 0 0 1 8 19.616)">
                    <g>
                        <g class="typst-text" transform="matrix(1 0 0 -1 0 8.976000000000003)">
                            <use xlink:href="#g4EE50823DE1072B888352BF5ED93E90B" x="5.28" y="0" fill="#ff0000" fill-rule="nonzero"/>
                            <use xlink:href="#g363496F2D5142F8F4982DAF4CE1D3779" x="26.400000000000002" y="0" fill="#ff0000" fill-rule="nonzero"/>
                            <use xlink:href="#g553CA0615203AE7EF2B51E16776E3FE0" x="36.96" y="0" fill="#ff0000" fill-rule="nonzero"/>
                        </g>
                    </g>
                </g>
                <g class="typst-group" transform="matrix(1 0 0 1 55.52000000000001 19.616)">
                    <g/>
                </g>
                <g class="typst-group" transform="matrix(1 0 0 1 8 42.848000000000006)">
                    <g/>
                </g>
                <g class="typst-group" transform="matrix(1 0 0 1 8 42.848000000000006)">
                    <g/>
                </g>
                <g class="typst-group" transform="matrix(1 0 0 1 8 42.848000000000006)">
                    <g/>
                </g>
                <g class="typst-group" transform="matrix(1 0 0 1 8 31.232000000000003)">
                    <g>
                        <g class="typst-text" transform="matrix(1 0 0 -1 0 8.976000000000003)">
                            <use xlink:href="#gD7BC2388059FC0B3DF9C32F4768A0A47" x="0" y="0" fill="#ff0000" fill-rule="nonzero"/>
                            <use xlink:href="#g4EE50823DE1072B888352BF5ED93E90B" x="15.84" y="0" fill="#ff0000" fill-rule="nonzero"/>
                            <use xlink:href="#gD7BC2388059FC0B3DF9C32F4768A0A47" x="42.24" y="0" fill="#ff0000" fill-rule="nonzero"/>
                        </g>
                    </g>
                </g>
                <g class="typst-group" transform="matrix(1 0 0 1 55.52000000000001 31.232000000000003)">
                    <g/>
                </g>
                <g class="typst-group" transform="matrix(1 0 0 1 8 54.464000000000006)">
                    <g/>
                </g>
                <g class="typst-group" transform="matrix(1 0 0 1 8 54.464000000000006)">
                    <g/>
                </g>
                <g class="typst-group" transform="matrix(1 0 0 1 8 54.464000000000006)">
                    <g/>
                </g>
                <g class="typst-group" transform="matrix(1 0 0 1 8 42.848000000000006)">
                    <g>
                        <g class="typst-text" transform="matrix(1 0 0 -1 0 8.976000000000003)">
                            <use xlink:href="#gD7BC2388059FC0B3DF9C32F4768A0A47" x="0" y="0" fill="#ff0000" fill-rule="nonzero"/>
                            <use xlink:href="#g553CA0615203AE7EF2B51E16776E3FE0" x="15.84" y="0" fill="#ff0000" fill-rule="nonzero"/>
                            <use xlink:href="#gB3CB5C71C376FEAC35A5CE3E9D70B056" x="21.12" y="0" fill="#ff0000" fill-rule="nonzero"/>
                            <use xlink:href="#gB3CB5C71C376FEAC35A5CE3E9D70B056" x="26.400000000000002" y="0" fill="#ff0000" fill-rule="nonzero"/>
                            <use xlink:href="#gB3CB5C71C376FEAC35A5CE3E9D70B056" x="31.680000000000003" y="0" fill="#ff0000" fill-rule="nonzero"/>
                            <use xlink:href="#g7F30B59DCAF383D6B34C412A1FA2300E" x="36.96" y="0" fill="#ff0000" fill-rule="nonzero"/>
                        </g>
                    </g>
                </g>
                <g class="typst-group" transform="matrix(1 0 0 1 55.52000000000001 42.848000000000006)">
                    <g/>
                </g>
                <g class="typst-group" transform="matrix(1 0 0 1 8 66.08)">
                    <g/>
                </g>
                <g class="typst-group" transform="matrix(1 0 0 1 8 66.08)">
                    <g/>
                </g>
                <g class="typst-group" transform="matrix(1 0 0 1 8 66.08)">
                    <g/>
                </g>
                <g class="typst-group" transform="matrix(1 0 0 1 8 54.464000000000006)">
                    <g>
                        <g class="typst-text" transform="matrix(1 0 0 -1 0 8.976000000000003)">
                            <use xlink:href="#g7F30B59DCAF383D6B34C412A1FA2300E" x="0" y="0" fill="#ff0000" fill-rule="nonzero"/>
                            <use xlink:href="#gB3CB5C71C376FEAC35A5CE3E9D70B056" x="5.28" y="0" fill="#ff0000" fill-rule="nonzero"/>
                        </g>
                    </g>
                </g>
                <g class="typst-group" transform="matrix(1 0 0 1 55.52000000000001 54.464000000000006)">
                    <g/>
                </g>
                <g class="typst-group" transform="matrix(1 0 0 1 8 77.69600000000001)">
                    <g/>
                </g>
                <g class="typst-group" transform="matrix(1 0 0 1 8 77.69600000000001)">
                    <g/>
                </g>
                <g class="typst-group" transform="matrix(1 0 0 1 8 77.69600000000001)">
                    <g/>
                </g>
                <g class="typst-group" transform="matrix(1 0 0 1 8 66.08)">
                    <g>
                        <g class="typst-text" transform="matrix(1 0 0 -1 0 8.976000000000003)">
                            <use xlink:href="#g161F6AFB6E58763D1E79D160BDCEFAFA" x="15.84" y="0" fill="#ff0000" fill-rule="nonzero"/>
                            <use xlink:href="#gB3CB5C71C376FEAC35A5CE3E9D70B056" x="21.12" y="0" fill="#ff0000" fill-rule="nonzero"/>
                        </g>
                    </g>
                </g>
                <g class="typst-group" transform="matrix(1 0 0 1 55.52000000000001 66.08)">
                    <g/>
                </g>
                <g class="typst-group" transform="matrix(1 0 0 1 8 77.69600000000001)">
                    <g/>
                </g>
                <g class="typst-group" transform="matrix(1 0 0 1 8 89.31200000000001)">
                    <g/>
                </g>
            </g>
        </g>
    </g>
    <defs id="glyph">
        <symbol id="gB3CB5C71C376FEAC35A5CE3E9D70B056" overflow="visible">
            <path d="M 0 0m 0.528 -1.2144 v 0.9944 h 4.224 v -0.9944 h -4.224 Z "/>
        </symbol>
        <symbol id="g4EE50823DE1072B888352BF5ED93E90B" overflow="visible">
            <path d="M 0 0m 0.528 -0.968 l 3.08 8.272 h 1.1439998 l -3.08 -8.272 h -1.1439999 Z "/>
        </symbol>
        <symbol id="g363496F2D5142F8F4982DAF4CE1D3779" overflow="visible">
            <path d="M 0 0m -4.752 -1.2144 v 0.9944 h 9.504 v -0.9944 h -9.504 Z "/>
        </symbol>
        <symbol id="g553CA0615203AE7EF2B51E16776E3FE0" overflow="visible">
            <path d="M 0 0m 3.5992 -0.968 l -3.0712 8.272 h 1.1439999 l 3.0712 -8.272 h -1.1439998 Z "/>
        </symbol>
        <symbol id="gD7BC2388059FC0B3DF9C32F4768A0A47" overflow="visible">
            <path d="M 0 0m 2.0856 -0.968 v 8.272 h 1.1088002 v -8.272 h -1.1088002 Z "/>
        </symbol>
        <symbol id="g7F30B59DCAF383D6B34C412A1FA2300E" overflow="visible">
            <path d="M 0 0m 1.232 2.3936 v 1.0208001 h 2.816 v -1.0208001 h -2.816 Z "/>
        </symbol>
        <symbol id="g161F6AFB6E58763D1E79D160BDCEFAFA" overflow="visible">
            <path d="M 0 0m 0.396 2.3936 v 1.0208001 h 3.652 v -1.0208001 h -3.652 Z m -4.444 0 v 1.0208001 h 3.652 v -1.0208001 h -3.652 Z "/>
        </symbol>
    </defs>
</svg>

<svg class="typst-doc" viewBox="0 0 91.8665 125.6585" width="91.8665" height="125.6585" xmlns="http://www.w3.org/2000/svg" xmlns:xlink="http://www.w3.org/1999/xlink" xmlns:h5="http://www.w3.org/1999/xhtml">
    <g>
        <g transform="translate(14.17325 14.17325)">
            <g class="typst-group">
                <g>
                    <g transform="translate(-0 -0)">
                        <path class="typst-shape" fill="#000000" d="M 0 5 C 0 2.2385762 2.2385762 0 5 0 L 58.52 0 C 61.281425 0 63.52 2.2385762 63.52 5 L 63.52 92.312 C 63.52 95.073425 61.281425 97.312 58.52 97.312 L 5 97.312 C 2.2385762 97.312 0 95.073425 0 92.312 Z "/>
                    </g>
                    <g transform="translate(8 19.616)">
                        <g class="typst-group">
                            <g/>
                        </g>
                    </g>
                    <g transform="translate(8 19.616)">
                        <g class="typst-group">
                            <g/>
                        </g>
                    </g>
                    <g transform="translate(8 8)">
                        <g class="typst-group">
                            <g>
                                <g transform="translate(0 8.976)">
                                    <g class="typst-text" transform="scale(1, -1)">
                                        <use xlink:href="#g45C544E5050795A0DB9B642A0F86EEF6" x="10.56" fill="#ff0000"/>
                                        <use xlink:href="#g45C544E5050795A0DB9B642A0F86EEF6" x="15.84" fill="#ff0000"/>
                                        <use xlink:href="#g45C544E5050795A0DB9B642A0F86EEF6" x="21.12" fill="#ff0000"/>
                                        <use xlink:href="#g45C544E5050795A0DB9B642A0F86EEF6" x="26.400000000000002" fill="#ff0000"/>
                                        <use xlink:href="#g45C544E5050795A0DB9B642A0F86EEF6" x="31.680000000000003" fill="#ff0000"/>
                                    </g>
                                </g>
                            </g>
                        </g>
                    </g>
                    <g transform="translate(55.519999999999996 8)">
                        <g class="typst-group">
                            <g/>
                        </g>
                    </g>
                    <g transform="translate(8 31.232000000000003)">
                        <g class="typst-group">
                            <g/>
                        </g>
                    </g>
                    <g transform="translate(8 31.232000000000003)">
                        <g class="typst-group">
                            <g/>
                        </g>
                    </g>
                    <g transform="translate(8 31.232000000000003)">
                        <g class="typst-group">
                            <g/>
                        </g>
                    </g>
                    <g transform="translate(8 19.616)">
                        <g class="typst-group">
                            <g>
                                <g transform="translate(0 8.976)">
                                    <g class="typst-text" transform="scale(1, -1)">
                                        <use xlink:href="#gEA462781DB655E9FC41D13FE877043C1" x="5.28" fill="#ff0000"/>
                                        <use xlink:href="#gC6C8A06ACA3F2258CFC932E1F8DC0306" x="26.400000000000002" fill="#ff0000"/>
                                        <use xlink:href="#g40C668FB4E37D9F21E1980C2683B7C07" x="36.96" fill="#ff0000"/>
                                    </g>
                                </g>
                            </g>
                        </g>
                    </g>
                    <g transform="translate(55.519999999999996 19.616)">
                        <g class="typst-group">
                            <g/>
                        </g>
                    </g>
                    <g transform="translate(8 42.848000000000006)">
                        <g class="typst-group">
                            <g/>
                        </g>
                    </g>
                    <g transform="translate(8 42.848000000000006)">
                        <g class="typst-group">
                            <g/>
                        </g>
                    </g>
                    <g transform="translate(8 42.848000000000006)">
                        <g class="typst-group">
                            <g/>
                        </g>
                    </g>
                    <g transform="translate(8 31.232000000000003)">
                        <g class="typst-group">
                            <g>
                                <g transform="translate(0 8.976)">
                                    <g class="typst-text" transform="scale(1, -1)">
                                        <use xlink:href="#g9E2918126B06D8427DFD8C44236F351E" x="0" fill="#ff0000"/>
                                        <use xlink:href="#gEA462781DB655E9FC41D13FE877043C1" x="15.84" fill="#ff0000"/>
                                        <use xlink:href="#g9E2918126B06D8427DFD8C44236F351E" x="42.24" fill="#ff0000"/>
                                    </g>
                                </g>
                            </g>
                        </g>
                    </g>
                    <g transform="translate(55.519999999999996 31.232000000000003)">
                        <g class="typst-group">
                            <g/>
                        </g>
                    </g>
                    <g transform="translate(8 54.464000000000006)">
                        <g class="typst-group">
                            <g/>
                        </g>
                    </g>
                    <g transform="translate(8 54.464000000000006)">
                        <g class="typst-group">
                            <g/>
                        </g>
                    </g>
                    <g transform="translate(8 54.464000000000006)">
                        <g class="typst-group">
                            <g/>
                        </g>
                    </g>
                    <g transform="translate(8 42.848000000000006)">
                        <g class="typst-group">
                            <g>
                                <g transform="translate(0 8.976)">
                                    <g class="typst-text" transform="scale(1, -1)">
                                        <use xlink:href="#g9E2918126B06D8427DFD8C44236F351E" x="0" fill="#ff0000"/>
                                        <use xlink:href="#g40C668FB4E37D9F21E1980C2683B7C07" x="15.84" fill="#ff0000"/>
                                        <use xlink:href="#g45C544E5050795A0DB9B642A0F86EEF6" x="21.12" fill="#ff0000"/>
                                        <use xlink:href="#g45C544E5050795A0DB9B642A0F86EEF6" x="26.400000000000002" fill="#ff0000"/>
                                        <use xlink:href="#g45C544E5050795A0DB9B642A0F86EEF6" x="31.680000000000003" fill="#ff0000"/>
                                        <use xlink:href="#gFBD659FA53EE4C06163ABC484E574054" x="36.96" fill="#ff0000"/>
                                    </g>
                                </g>
                            </g>
                        </g>
                    </g>
                    <g transform="translate(55.519999999999996 42.848000000000006)">
                        <g class="typst-group">
                            <g/>
                        </g>
                    </g>
                    <g transform="translate(8 66.08000000000001)">
                        <g class="typst-group">
                            <g/>
                        </g>
                    </g>
                    <g transform="translate(8 66.08000000000001)">
                        <g class="typst-group">
                            <g/>
                        </g>
                    </g>
                    <g transform="translate(8 66.08000000000001)">
                        <g class="typst-group">
                            <g/>
                        </g>
                    </g>
                    <g transform="translate(8 54.464000000000006)">
                        <g class="typst-group">
                            <g>
                                <g transform="translate(0 8.976)">
                                    <g class="typst-text" transform="scale(1, -1)">
                                        <use xlink:href="#gFBD659FA53EE4C06163ABC484E574054" x="0" fill="#ff0000"/>
                                        <use xlink:href="#g45C544E5050795A0DB9B642A0F86EEF6" x="5.28" fill="#ff0000"/>
                                    </g>
                                </g>
                            </g>
                        </g>
                    </g>
                    <g transform="translate(55.519999999999996 54.464000000000006)">
                        <g class="typst-group">
                            <g/>
                        </g>
                    </g>
                    <g transform="translate(8 77.69600000000001)">
                        <g class="typst-group">
                            <g/>
                        </g>
                    </g>
                    <g transform="translate(8 77.69600000000001)">
                        <g class="typst-group">
                            <g/>
                        </g>
                    </g>
                    <g transform="translate(8 77.69600000000001)">
                        <g class="typst-group">
                            <g/>
                        </g>
                    </g>
                    <g transform="translate(8 66.08000000000001)">
                        <g class="typst-group">
                            <g>
                                <g transform="translate(0 8.976)">
                                    <g class="typst-text" transform="scale(1, -1)">
                                        <use xlink:href="#gD748156160DF153BA721E3F841E20844" x="15.84" fill="#ff0000"/>
                                        <use xlink:href="#g45C544E5050795A0DB9B642A0F86EEF6" x="21.12" fill="#ff0000"/>
                                    </g>
                                </g>
                            </g>
                        </g>
                    </g>
                    <g transform="translate(55.519999999999996 66.08000000000001)">
                        <g class="typst-group">
                            <g/>
                        </g>
                    </g>
                    <g transform="translate(8 77.69600000000001)">
                        <g class="typst-group">
                            <g/>
                        </g>
                    </g>
                    <g transform="translate(8 89.31200000000001)">
                        <g class="typst-group">
                            <g/>
                        </g>
                    </g>
                </g>
            </g>
        </g>
    </g>
    <defs id="glyph">
        <symbol id="g45C544E5050795A0DB9B642A0F86EEF6" overflow="visible">
            <path d="M 0.528 -1.2144 L 0.528 -0.22 L 4.752 -0.22 L 4.752 -1.2144 L 0.528 -1.2144 Z "/>
        </symbol>
        <symbol id="gEA462781DB655E9FC41D13FE877043C1" overflow="visible">
            <path d="M 0.528 -0.968 L 3.608 7.304 L 4.752 7.304 L 1.6719999 -0.968 L 0.528 -0.968 Z "/>
        </symbol>
        <symbol id="gC6C8A06ACA3F2258CFC932E1F8DC0306" overflow="visible">
            <path d="M -4.752 -1.2144 L -4.752 -0.22 L 4.752 -0.22 L 4.752 -1.2144 L -4.752 -1.2144 Z "/>
        </symbol>
        <symbol id="g40C668FB4E37D9F21E1980C2683B7C07" overflow="visible">
            <path d="M 3.5992 -0.968 L 0.528 7.304 L 1.6719999 7.304 L 4.7432 -0.968 L 3.5992 -0.968 Z "/>
        </symbol>
        <symbol id="g9E2918126B06D8427DFD8C44236F351E" overflow="visible">
            <path d="M 2.0856 -0.968 L 2.0856 7.304 L 3.1944 7.304 L 3.1944 -0.968 L 2.0856 -0.968 Z "/>
        </symbol>
        <symbol id="gFBD659FA53EE4C06163ABC484E574054" overflow="visible">
            <path d="M 1.232 2.3936 L 1.232 3.4144 L 4.048 3.4144 L 4.048 2.3936 L 1.232 2.3936 Z "/>
        </symbol>
        <symbol id="gD748156160DF153BA721E3F841E20844" overflow="visible">
            <path d="M 0.396 2.3936 L 0.396 3.4144 L 4.048 3.4144 L 4.048 2.3936 L 0.396 2.3936 Z M -4.048 2.3936 L -4.048 3.4144 L -0.396 3.4144 L -0.396 2.3936 L -4.048 2.3936 Z "/>
        </symbol>
    </defs>
</svg>
